X: 1
T: Callan Bridge
M: 4/4
L: 1/8
R: reel
K: Dmaj
F3G A2GE|FDFA GE~E2|~F3G A3B|AFGE FDD2:|:
A3B d3B|GBde dB~B2|A3B d3B|AFGE FDD2:|
